{
  "type": "map",
  "orientation": "orthogonal",
  "renderorder": "right-down",
  "parallaxoriginy": 90,
  "width": 56,
  "height": 10,
  "tilewidth": 18,
  "tileheight": 18,
  "properties": [
    {
      "name": "title",
      "type": "string",
      "value": "SUNLIT MEADOW"
    },
    {
      "name": "next",
      "type": "file",
      "value": "moonrise.tmj"
    },
    {
      "name": "music",
      "type": "file",
      "value": "../audio/meadow.wav"
    }
  ],
  "tilesets": [
    {
      "firstgid": 1,
      "source": "tilesets/terrain.tsj"
    },
    {
      "firstgid": 181,
      "source": "tilesets/background.tsj"
    },
    {
      "firstgid": 205,
      "source": "tilesets/characters.tsj"
    }
  ],
  "layers": [
    {
      "id": 1,
      "type": "imagelayer",
      "image": "images/meadow-sky.png",
      "imagewidth": 300,
      "imageheight": 180,
      "repeatx": true,
      "parallaxx": 0.12,
      "parallaxy": 0
    },
    {
      "id": 2,
      "name": "clouds",
      "type": "objectgroup",
      "draworder": "index",
      "parallaxx": 0.25,
      "opacity": 0.8,
      "objects": [
        {
          "id": 200,
          "gid": 154,
          "x": 36,
          "y": 48,
          "width": 18,
          "height": 18
        },
        {
          "id": 201,
          "gid": 155,
          "x": 54,
          "y": 48,
          "width": 18,
          "height": 18
        },
        {
          "id": 202,
          "gid": 156,
          "x": 72,
          "y": 48,
          "width": 18,
          "height": 18
        },
        {
          "id": 203,
          "gid": 154,
          "x": 200,
          "y": 64,
          "width": 18,
          "height": 18
        },
        {
          "id": 204,
          "gid": 155,
          "x": 218,
          "y": 64,
          "width": 18,
          "height": 18
        },
        {
          "id": 205,
          "gid": 156,
          "x": 236,
          "y": 64,
          "width": 18,
          "height": 18
        },
        {
          "id": 206,
          "gid": 154,
          "x": 400,
          "y": 48,
          "width": 18,
          "height": 18
        },
        {
          "id": 207,
          "gid": 155,
          "x": 418,
          "y": 48,
          "width": 18,
          "height": 18
        },
        {
          "id": 208,
          "gid": 156,
          "x": 436,
          "y": 48,
          "width": 18,
          "height": 18
        },
        {
          "id": 209,
          "gid": 154,
          "x": 690,
          "y": 64,
          "width": 18,
          "height": 18
        },
        {
          "id": 210,
          "gid": 155,
          "x": 708,
          "y": 64,
          "width": 18,
          "height": 18
        },
        {
          "id": 211,
          "gid": 156,
          "x": 726,
          "y": 64,
          "width": 18,
          "height": 18
        },
        {
          "id": 212,
          "gid": 154,
          "x": 900,
          "y": 48,
          "width": 18,
          "height": 18
        },
        {
          "id": 213,
          "gid": 155,
          "x": 918,
          "y": 48,
          "width": 18,
          "height": 18
        },
        {
          "id": 214,
          "gid": 156,
          "x": 936,
          "y": 48,
          "width": 18,
          "height": 18
        }
      ]
    },
    {
      "id": 3,
      "name": "decoration",
      "type": "tilelayer",
      "width": 56,
      "height": 10,
      "data": [
        0,
        0,
        0,
        0,
        0,
        0,
        0,
        0,
        0,
        0,
        0,
        0,
        0,
        0,
        0,
        0,
        0,
        0,
        0,
        0,
        0,
        0,
        0,
        0,
        0,
        0,
        0,
        0,
        0,
        0,
        0,
        0,
        0,
        0,
        0,
        0,
        0,
        0,
        0,
        0,
        0,
        0,
        0,
        0,
        0,
        0,
        0,
        0,
        0,
        0,
        0,
        0,
        0,
        0,
        0,
        0,
        0,
        0,
        0,
        0,
        0,
        0,
        0,
        0,
        0,
        0,
        0,
        0,
        0,
        0,
        0,
        0,
        0,
        0,
        0,
        0,
        0,
        0,
        0,
        0,
        0,
        0,
        0,
        0,
        0,
        0,
        0,
        0,
        0,
        0,
        0,
        0,
        0,
        0,
        0,
        0,
        0,
        0,
        0,
        0,
        0,
        0,
        0,
        0,
        0,
        0,
        0,
        0,
        0,
        0,
        0,
        0,
        0,
        0,
        0,
        0,
        0,
        0,
        0,
        0,
        0,
        0,
        0,
        0,
        0,
        0,
        0,
        0,
        0,
        0,
        0,
        0,
        0,
        0,
        0,
        0,
        0,
        0,
        0,
        0,
        0,
        0,
        0,
        0,
        0,
        0,
        0,
        0,
        0,
        0,
        0,
        0,
        0,
        0,
        0,
        0,
        0,
        0,
        0,
        0,
        0,
        0,
        0,
        0,
        0,
        0,
        0,
        0,
        0,
        0,
        0,
        0,
        0,
        0,
        0,
        0,
        0,
        0,
        0,
        0,
        0,
        0,
        0,
        0,
        0,
        0,
        0,
        0,
        0,
        0,
        0,
        0,
        0,
        0,
        0,
        0,
        0,
        0,
        0,
        0,
        0,
        0,
        0,
        0,
        0,
        0,
        0,
        0,
        0,
        0,
        0,
        0,
        0,
        0,
        0,
        0,
        0,
        0,
        0,
        0,
        0,
        0,
        0,
        0,
        0,
        0,
        0,
        0,
        0,
        0,
        0,
        0,
        0,
        0,
        0,
        0,
        0,
        0,
        0,
        0,
        0,
        0,
        0,
        0,
        0,
        0,
        0,
        0,
        0,
        0,
        0,
        0,
        0,
        0,
        0,
        0,
        0,
        0,
        0,
        0,
        0,
        0,
        0,
        0,
        0,
        0,
        0,
        0,
        0,
        0,
        0,
        0,
        0,
        0,
        0,
        0,
        0,
        0,
        0,
        0,
        0,
        0,
        0,
        0,
        0,
        0,
        0,
        0,
        0,
        0,
        0,
        0,
        0,
        0,
        0,
        0,
        0,
        0,
        0,
        0,
        0,
        0,
        0,
        0,
        0,
        0,
        0,
        0,
        0,
        0,
        0,
        0,
        0,
        0,
        0,
        0,
        0,
        0,
        0,
        0,
        0,
        0,
        0,
        0,
        0,
        0,
        0,
        0,
        0,
        0,
        0,
        0,
        0,
        0,
        0,
        0,
        0,
        0,
        0,
        0,
        0,
        0,
        0,
        0,
        0,
        0,
        0,
        0,
        0,
        0,
        0,
        0,
        0,
        0,
        0,
        0,
        0,
        0,
        0,
        0,
        0,
        0,
        0,
        0,
        0,
        0,
        0,
        0,
        0,
        0,
        0,
        0,
        0,
        0,
        0,
        0,
        0,
        0,
        0,
        0,
        0,
        0,
        0,
        0,
        0,
        0,
        0,
        0,
        0,
        0,
        0,
        0,
        0,
        0,
        0,
        125,
        0,
        0,
        0,
        0,
        0,
        0,
        0,
        0,
        0,
        0,
        0,
        0,
        129,
        0,
        0,
        0,
        0,
        0,
        0,
        118,
        0,
        0,
        0,
        0,
        0,
        0,
        0,
        0,
        0,
        146,
        0,
        0,
        0,
        0,
        0,
        89,
        0,
        0,
        0,
        0,
        0,
        0,
        0,
        0,
        0,
        0,
        0,
        0,
        0,
        125,
        0,
        0,
        0,
        0,
        0,
        0,
        0,
        0,
        0,
        0,
        0,
        0,
        0,
        0,
        0,
        0,
        0,
        0,
        0,
        0,
        0,
        0,
        0,
        0,
        0,
        0,
        0,
        0,
        0,
        0,
        0,
        0,
        0,
        0,
        0,
        0,
        0,
        0,
        0,
        0,
        0,
        0,
        0,
        0,
        0,
        0,
        0,
        0,
        0,
        0,
        0,
        0,
        0,
        0,
        0,
        0,
        0,
        0,
        0,
        0,
        0,
        0,
        0,
        0,
        0,
        0,
        0,
        0,
        0,
        0,
        0,
        0,
        0,
        0,
        0,
        0,
        0,
        0,
        0,
        0,
        0,
        0,
        0,
        0,
        0,
        0,
        0,
        0,
        0,
        0,
        0,
        0,
        0,
        0,
        0,
        0,
        0,
        0,
        0,
        0,
        0,
        0,
        0,
        0,
        0,
        0,
        0,
        0,
        0,
        0,
        0,
        0,
        0,
        0
      ]
    },
    {
      "id": 4,
      "name": "terrain",
      "type": "tilelayer",
      "width": 56,
      "height": 10,
      "data": [
        0,
        0,
        0,
        0,
        0,
        0,
        0,
        0,
        0,
        0,
        0,
        0,
        0,
        0,
        0,
        0,
        0,
        0,
        0,
        0,
        0,
        0,
        0,
        0,
        0,
        0,
        0,
        0,
        0,
        0,
        0,
        0,
        0,
        0,
        0,
        0,
        0,
        0,
        0,
        0,
        0,
        0,
        0,
        0,
        0,
        0,
        0,
        0,
        0,
        0,
        0,
        0,
        0,
        0,
        0,
        0,
        0,
        0,
        0,
        0,
        0,
        0,
        0,
        0,
        0,
        0,
        0,
        0,
        0,
        0,
        0,
        0,
        0,
        0,
        0,
        0,
        0,
        0,
        0,
        0,
        0,
        0,
        0,
        0,
        0,
        0,
        0,
        0,
        0,
        0,
        0,
        0,
        0,
        0,
        0,
        0,
        0,
        0,
        0,
        0,
        0,
        0,
        0,
        0,
        0,
        0,
        0,
        0,
        0,
        0,
        0,
        0,
        0,
        0,
        0,
        0,
        0,
        0,
        0,
        0,
        0,
        0,
        0,
        0,
        0,
        0,
        0,
        0,
        0,
        0,
        0,
        0,
        0,
        0,
        0,
        0,
        0,
        0,
        0,
        0,
        0,
        0,
        0,
        0,
        0,
        0,
        0,
        0,
        0,
        0,
        0,
        0,
        0,
        0,
        0,
        0,
        0,
        0,
        0,
        0,
        0,
        0,
        0,
        0,
        0,
        0,
        0,
        0,
        0,
        0,
        0,
        0,
        0,
        0,
        0,
        0,
        0,
        0,
        0,
        0,
        0,
        0,
        0,
        0,
        0,
        0,
        0,
        0,
        0,
        0,
        0,
        0,
        0,
        0,
        0,
        0,
        0,
        0,
        0,
        0,
        0,
        0,
        0,
        0,
        0,
        0,
        0,
        0,
        0,
        0,
        0,
        0,
        0,
        0,
        0,
        0,
        0,
        0,
        0,
        0,
        0,
        0,
        0,
        0,
        0,
        0,
        0,
        0,
        0,
        0,
        0,
        0,
        0,
        0,
        0,
        0,
        2,
        3,
        4,
        0,
        0,
        0,
        0,
        0,
        0,
        0,
        0,
        0,
        0,
        0,
        0,
        0,
        0,
        0,
        0,
        2,
        3,
        4,
        0,
        0,
        0,
        0,
        0,
        0,
        0,
        0,
        0,
        0,
        0,
        0,
        0,
        0,
        2,
        3,
        4,
        0,
        0,
        0,
        0,
        0,
        0,
        0,
        0,
        0,
        0,
        0,
        0,
        0,
        0,
        0,
        0,
        0,
        0,
        0,
        0,
        0,
        0,
        0,
        0,
        0,
        0,
        0,
        0,
        0,
        0,
        0,
        0,
        0,
        0,
        0,
        0,
        0,
        0,
        0,
        0,
        0,
        0,
        0,
        0,
        0,
        0,
        0,
        0,
        0,
        0,
        0,
        0,
        0,
        0,
        0,
        0,
        0,
        0,
        0,
        0,
        0,
        0,
        0,
        0,
        0,
        0,
        0,
        2,
        3,
        3,
        4,
        0,
        0,
        0,
        0,
        0,
        0,
        0,
        0,
        0,
        0,
        0,
        0,
        0,
        0,
        0,
        2,
        3,
        3,
        4,
        0,
        0,
        0,
        0,
        0,
        0,
        0,
        0,
        0,
        0,
        0,
        0,
        0,
        2,
        3,
        3,
        4,
        0,
        0,
        0,
        0,
        0,
        0,
        0,
        0,
        0,
        0,
        0,
        0,
        0,
        0,
        0,
        0,
        0,
        0,
        0,
        0,
        0,
        0,
        0,
        0,
        0,
        0,
        0,
        0,
        0,
        0,
        0,
        0,
        0,
        0,
        0,
        0,
        0,
        0,
        0,
        0,
        0,
        0,
        0,
        0,
        0,
        0,
        0,
        0,
        0,
        0,
        0,
        0,
        0,
        0,
        0,
        0,
        0,
        0,
        0,
        0,
        0,
        0,
        0,
        0,
        0,
        0,
        2,
        3,
        3,
        3,
        3,
        3,
        3,
        3,
        3,
        3,
        3,
        3,
        3,
        3,
        3,
        3,
        3,
        3,
        3,
        4,
        0,
        0,
        2,
        3,
        3,
        3,
        3,
        3,
        3,
        3,
        3,
        3,
        3,
        3,
        3,
        4,
        0,
        0,
        2,
        3,
        3,
        3,
        3,
        3,
        3,
        3,
        3,
        3,
        3,
        3,
        3,
        3,
        3,
        3,
        3,
        4,
        22,
        23,
        23,
        23,
        23,
        23,
        23,
        23,
        23,
        23,
        23,
        23,
        23,
        23,
        23,
        23,
        23,
        23,
        23,
        24,
        0,
        0,
        22,
        23,
        23,
        23,
        23,
        23,
        23,
        23,
        23,
        23,
        23,
        23,
        23,
        24,
        0,
        0,
        22,
        23,
        23,
        23,
        23,
        23,
        23,
        23,
        23,
        23,
        23,
        23,
        23,
        23,
        23,
        23,
        23,
        24
      ]
    },
    {
      "id": 5,
      "name": "collision",
      "type": "objectgroup",
      "visible": false,
      "objects": [
        {
          "id": 1,
          "type": "solid",
          "x": 0,
          "y": 144,
          "width": 360,
          "height": 36
        },
        {
          "id": 2,
          "type": "solid",
          "x": 396,
          "y": 144,
          "width": 252,
          "height": 36
        },
        {
          "id": 3,
          "type": "solid",
          "x": 684,
          "y": 144,
          "width": 324,
          "height": 36
        },
        {
          "id": 4,
          "type": "solid",
          "x": 108,
          "y": 108,
          "width": 72,
          "height": 18
        },
        {
          "id": 5,
          "type": "solid",
          "x": 216,
          "y": 72,
          "width": 54,
          "height": 18
        },
        {
          "id": 6,
          "type": "solid",
          "x": 450,
          "y": 108,
          "width": 72,
          "height": 18
        },
        {
          "id": 7,
          "type": "solid",
          "x": 558,
          "y": 72,
          "width": 54,
          "height": 18
        },
        {
          "id": 8,
          "type": "solid",
          "x": 756,
          "y": 108,
          "width": 72,
          "height": 18
        },
        {
          "id": 9,
          "type": "solid",
          "x": 864,
          "y": 72,
          "width": 54,
          "height": 18
        }
      ]
    },
    {
      "id": 6,
      "name": "entities",
      "type": "objectgroup",
      "visible": false,
      "objects": [
        {
          "id": 100,
          "type": "player",
          "point": true,
          "x": 36,
          "y": 132,
          "properties": [
            {
              "name": "region",
              "type": "int",
              "value": 204
            }
          ]
        },
        {
          "id": 101,
          "type": "coin",
          "point": true,
          "x": 126,
          "y": 96,
          "properties": [
            {
              "name": "region",
              "type": "int",
              "value": 151
            }
          ]
        },
        {
          "id": 102,
          "type": "coin",
          "point": true,
          "x": 162,
          "y": 96,
          "properties": [
            {
              "name": "region",
              "type": "int",
              "value": 151
            }
          ]
        },
        {
          "id": 103,
          "type": "coin",
          "point": true,
          "x": 234,
          "y": 60,
          "properties": [
            {
              "name": "region",
              "type": "int",
              "value": 151
            }
          ]
        },
        {
          "id": 104,
          "type": "coin",
          "point": true,
          "x": 252,
          "y": 60,
          "properties": [
            {
              "name": "region",
              "type": "int",
              "value": 151
            }
          ]
        },
        {
          "id": 105,
          "type": "coin",
          "point": true,
          "x": 468,
          "y": 96,
          "properties": [
            {
              "name": "region",
              "type": "int",
              "value": 151
            }
          ]
        },
        {
          "id": 106,
          "type": "coin",
          "point": true,
          "x": 504,
          "y": 96,
          "properties": [
            {
              "name": "region",
              "type": "int",
              "value": 151
            }
          ]
        },
        {
          "id": 107,
          "type": "coin",
          "point": true,
          "x": 576,
          "y": 60,
          "properties": [
            {
              "name": "region",
              "type": "int",
              "value": 151
            }
          ]
        },
        {
          "id": 108,
          "type": "coin",
          "point": true,
          "x": 594,
          "y": 60,
          "properties": [
            {
              "name": "region",
              "type": "int",
              "value": 151
            }
          ]
        },
        {
          "id": 109,
          "type": "coin",
          "point": true,
          "x": 774,
          "y": 96,
          "properties": [
            {
              "name": "region",
              "type": "int",
              "value": 151
            }
          ]
        },
        {
          "id": 110,
          "type": "coin",
          "point": true,
          "x": 810,
          "y": 96,
          "properties": [
            {
              "name": "region",
              "type": "int",
              "value": 151
            }
          ]
        },
        {
          "id": 111,
          "type": "coin",
          "point": true,
          "x": 882,
          "y": 60,
          "properties": [
            {
              "name": "region",
              "type": "int",
              "value": 151
            }
          ]
        },
        {
          "id": 112,
          "type": "coin",
          "point": true,
          "x": 900,
          "y": 60,
          "properties": [
            {
              "name": "region",
              "type": "int",
              "value": 151
            }
          ]
        },
        {
          "id": 113,
          "type": "hazard",
          "point": true,
          "x": 312,
          "y": 138,
          "properties": [
            {
              "name": "region",
              "type": "int",
              "value": 64
            }
          ]
        },
        {
          "id": 114,
          "type": "hazard",
          "point": true,
          "x": 702,
          "y": 138,
          "properties": [
            {
              "name": "region",
              "type": "int",
              "value": 64
            }
          ]
        },
        {
          "id": 115,
          "type": "enemy",
          "point": true,
          "x": 510,
          "y": 134,
          "properties": [
            {
              "name": "region",
              "type": "int",
              "value": 219
            },
            {
              "name": "minX",
              "type": "float",
              "value": 450
            },
            {
              "name": "maxX",
              "type": "float",
              "value": 600
            },
            {
              "name": "speed",
              "type": "float",
              "value": 28
            }
          ]
        },
        {
          "id": 116,
          "type": "goal",
          "point": true,
          "x": 978,
          "y": 125,
          "properties": [
            {
              "name": "region",
              "type": "int",
              "value": 94
            }
          ]
        }
      ]
    }
  ]
}
